X: 96
T:Macantash. JaW.096
M:C|
L:1/8
Q:200
S:James Winder Ms, Lancashire, 1835-41
R:Reel
O:England
A:Wyresdale,Lancashire
H:1/8
Z:vmp.Chris Partington, Aug 2004
K:G
D|G2G2 B2AG|c2c2 c2BA|G2G2 B2AG|A3B A2g2|!
G2G2 B2AG|c2c2 dcBA|B2g2A2f2|G3A G3:|!
|:D|GABG BcdB|cdec BcdB|A3B A2g2|!
GABG BcdB|B2g2 A2f2|G3A G3:|!
|:e|dBGB dBGB|c2A2 A2e2|dBGB dBGB|A3B A2e2|!
dBGB dBGB|c2A2 A2e2|B2g2 A2f2|G3A G3:|]
